X:1
T:Pour une, las, j'endure
T:Pour une, las, j'endure
T:Jacob Clemens non Papa
C:Jacob Clemens non Papa
%%score [ 1 [ 2 3 ] 4 ]
L:1/8
Q:1/4=120
M:2/2
K:F
V:1 treble nm="Superius" snm="S"
V:2 treble-8 nm="Tenor 1" snm="T 1"
V:3 treble-8 nm="Tenor 2" snm="T 2"
V:4 bass nm="Bassus" snm="B"
V:1
 z4 A4 | A2 A2 G2 G2 | B2 A4 GF | E4 z2 G2 | F2 D2 F2 E2 | D2 A2 A2 A2 | G2 G2 B4 | A3 G F2 ED | %8
w: Pour|u- ne, las, j'en-|du- * * *|re, pen-|sant de mieux a-|voir, pour u- ne,|las, j'en- du-||
 A4 z4 | z2 B2 A3 G | F2 E2 DE FG | AB cB AG G2- | G2 F2 G2 B2 | BBBB c3 B | AG FE D2 B2 | %15
w: re,|pen- sant de|mieux a- voir, _ _ _|_ _ _ _ _ _ _|* * * la|cho- se m'est trop du- *|* * * * re, l'on|
 A2 GF G2 G2 | F4 z2 G2 | GGGG A2 G2 | z2 F2 F3 D | E2 C2 D4 | z2 B2 BBAF | G2 F2 z2 G2 | %22
w: peult a- * per- che-|voir, la|cho- se m'est trop du- re,|l'on peult a-|per- che- voir|le mal en a souf-|fran- ce, le|
 A2 A2 A2 G2 | A4 z2 F2 | G3 G G2 G2 | F2 D3 EFG | A4 z4 | z2 B2 A3 G | F2 E2 DE FG | %29
w: quel me fault souf-|frir, si|je n'ay al- le-|gean- * * * *|ce|il me _|_ faul- dra _ _ _|
 AB cB AG G2- | G2 F2 G2 B2 | A3 G F2 _E2 | DE FG AB cB | AG G4 F2 | G8- | G8- | G8 |] %37
w: _ _ _ _ _ _ _|* mou- rir, il|me _ _ faul-|dra _ _ _ _ _ _ _|_ _ _ mou-|rir.|_||
V:2
 d4 d2 d2 | c2 c2 _e4 | d4 z2 A2 | c2 c2 B3 c |"^b" de d4 c2 | d2 f2 e2 f2 | d2 d2 g3 f | %7
w: Pour u- ne,|las, j'en- du-|re, pen-|sant de mieux _|_ _ _ a-|voir, pour u- ne,|las, j'en- du- *|
 ed e2 d2 d2 | f2 e2 d2 c2 | d2 f3 e d2- | d2 c2 d4 | z2 e2 f2 c2 | d2 d2 B2 z G | gggg a3 g | %14
w: * * * re, pen-|sant de mieux _|_ _ _ _|* a- voir,|pen- sant de|mieux a- voir, la|cho- se m'est trop du- *|
 fe dc B2 B2 | c2 d2 d2 c2 | d4 z2 d2 | ddde f2 ed | c2 d4 d2 | cB AG A2 A2 | G2 g2 ggef | %21
w: * * * * re, l'on|peult a- per- che-|voir, la|cho- se m'est trop du- * *|re, l'on peult|a- * * * per- che-|voir le mal en a souf-|
 c2 dd Bc de | fc f4 ed | e4 d2 d2 | d3 d d2 _e2 | c2 B2 f4 | f2 e2 d2 c2 |"^b" f2 f3 e d2- | %28
w: fran- ce, le quel _ _ _|me _ fault _ _|souf- frir, si|je n'ay al- le-|gean- * *|ce, il me faul-|dra mou- * *|
 d2 c2 d4 | z2 e2 f2 c2 | d2 d2 B2 d2 | c3 B A2 G2 | F2 f2 f2 f2 |"^b" e2 c2 d3 c | B2 G2 B3 c | %35
w: * * rir,|il me faul-|dra mou- rir, il|me _ _ faul-|dra mou- rir, il|me faul- dra mou-|rir, il me faul-|
 d2 _e2 d4- | d8 |] %37
w: dra mou- rir.|_|
V:3
 z8 | z8 | z4 A4 | A2 A2 G2 G2 | B4 A4 | z2 A2 c2 c2 |"^b" B3 c de d2- | d2 c2 d2 G2 | c3 B A2 G2 | %9
w: ||Pour|u- ne, las, j'en-|du- re,|pour u- ne,|las, j'en- * * du-|* * re, pen-|sant _ _ de|
 A2 D2 F3 G | A2 A2 D2 d2 | d2 c2 d2 G2 | A4 z2 d2 | ddde f2 ed | c2 d4 G2 | A2 B4 AG | A4 z2 B2 | %17
w: mieux a- voir, de|mieux a- voir, pen-|sant de mieux a-|voir, la|cho- se m'est trop du- * *|* l'on peult|a- per- che- *|voir, la|
 BBBB c3 B | AG FE D2 B2 | AG G4 F2 | G2 d2 dBcd | G2 A2 z2 B2 | c2 A2 c2 d2- | %23
w: cho- se m'est trop du- *|* * * * re, l'on|peult a- per- che-|voir le mal en a souf-|fran- ce, le|quel me fault souf-|
"^-natural" dc/B/ c2 d2 A2 | B3 B BB cB |"^b" AG FE D2 d2 | c3 B A2 G2 | d2 D2 F3 G | %28
w: * * * * frir, si|je n'ay al- le- gean _|_ _ _ _ ce, il|me _ _ faul-|dra, il me faul-|
 A2 A2 D2 d2- | dc c3 B AG | A4 z2 f2 | f3 e d2 B2 | B2 d2 c3 d | cB AG A2 A2 | G2 _e2 d3 c | %35
w: dra mou- rir, il|_ me faul- dra mou- *|rir, il|me _ _ faul-|dra mou- rir, il|me _ _ _ _ faul-|dra,- il me faul-|
 B2 c2 B4- | B8 |] %37
w: dra mou- rir.|_|
V:4
 z8 | z8 | D,4 D,2 D,2 | C,2 C,2 _E,4 | D,4 z2 A,2 | D,2 D,2 A,2 F,2 | G,8 | A,4 z2 B,2 | %8
w: ||Pour u- ne,|las, j'en- du-|re, pour|u- ne, las, j'en-|du-|re, pen-|
 A,3 G, F,2 E,2 | D,4 z4 | z4 z2 B,2 | A,3 G, F,2 E,2 | D,4 z2 G,2 | G,G,G,G, F,2 C,2 | %14
w: sant de mieux a-|voir,|pen-|sant de mieux a-|voir, la|cho- se m'est trop du- *|
 F,4 G,2 G,2 |"^b""^b""^b" F,2 E,D, E,2 E,2 | D,4 z2 G,2 | G,G,G,G, F,2 C,2 | F,2 D,2 F,2 G,2 | %19
w: re, l'on peult|a- * * per- che-|voir, la|cho- se m'est trop du- *|re, l'on peut a-|
"^b" C,2 E,2 D,4 | z2 G,2 G,G,A,D, | _E,2 D,2 z2 G,2 | F,3 G, A,2 B,2 | A,4 z2 D,2 | %24
w: per- che- voir|le mal en a souf-|fran- ce, le|quel me fault souf-|frir, si|
 G,3 G, G,2 _E,2 | F,2 B,,4 B,2 | A,3 G, F,2 _E,2 | B,,4 z4 | z4 z2 B,2 |"^#" A,3 G, F,2 E,2 | %30
w: je n'ay al- le-|gean- ce, il|me _ _ faul-|dra,|il|me _ _ fau-|
"^b" D,4 z2 B,,2 | F,3 C, D,2 _E,2 | B,,2 B,,2 F,3 B,, | C,2 _E,2 D,4 | z2 C,2 G,3 C, | %35
w: dra, il|me faul- dra mou-|rir, il me faul-|dra mou- rir,|il me faul-|
 G,2 C,2 G,4- | G,8 |] %37
w: dra mou- rir.|_|

